!!!COM:	Bach, Johann Sebastian
!!!OMV:	Gott des Himmels und der Erden
!!!OTL:	Gott des Himmels und der Erden
**kern	**fb	**kern	**kern	**kern	**kern
*part5	*part5	*part4	*part3	*part2	*part1
*staff5	*	*staff4	*staff3	*staff2	*staff1
*I"Contrabass	*	*I"Voice	*I"Voice	*I"Voice	*I"Voice
*I'Cb.	*	*I'V	*I'V	*I'V	*I'V
*clefF4	*	*clefF4	*clefGv2	*clefG2	*clefG2
*Trd0c0	*	*	*	*	*
*k[f#c#g#]	*	*k[f#c#g#]	*k[f#c#g#]	*k[f#c#g#]	*k[f#c#g#]
*M4/4	*	*M4/4	*M4/4	*M4/4	*M4/4
=	=	=	=	=	=
4A	.	4A	4c#	4e	4a
4G#	6	4G#	4B	4e	4b
4F#	.	4F#	8AL	4a	8cc#L
.	.	.	8BJ	.	8ddJ
8C#L	6	8C#L	8c#L	8aL	4ee
8BBJ	6	8BBJ	8dJ	8g#J	.
=3	=3	=3	=3	=3	=3
8C#L	6 5	8C#L	8eL	8g#L	4a
8D#XJ	6 5	8D#XJ	8BJ	8f#	.
4E	9	4E	4B	8e	4g#
.	8	.	.	8eJ	.
4BB	4	4BB	8.BL	8eL	4f#
.	#	.	.	8d#XJ	.
.	.	.	16AJk	.	.
4E;	.	4E;	4G#;	4B;	4e;
=4	=4	=4	=4	=4	=4
4.BB	5	4BB	8BnL	8dL	4f#
.	.	.	8c#J	8c#J	.
.	6	8B	8dL	4B	4g#
8D	.	16c#LL	8eJ	.	.
.	.	16dJJ	.	.	.
8C#L	6	8c#L	4A	4e	4a
8BBJ	.	8BJ	.	.	.
8AAL	5 2	8AL	4E	4e	4b
8GG#J	.	8G#J	.	.	.
=5	=5	=5	=5	=5	=5
8AAL	.	8AL	4.A	8eL	8cc#L
8D	.	8DJ	.	8f#J	8ddJ
8E	4	4E	.	4e	4b
8EEJ	3	.	8G#	.	.
2AA;	.	2AA;	2c#;	2e;	2a;
=6:|!	=6:|!	=6:|!	=6:|!	=6:|!	=6:|!
!!linebreak:original
8AL	.	8AL	4e	4a	4cc#
8G#J	.	8G#J	.	.	.
4F#	7	4F#	8eL	4a	4cc#
.	#6\	.	8d#XJ	.	.
8G#L	.	8G#L	8eL	8eL	4b
8F#J	.	8F#J	8dnJ	8f#J	.
4E	6	4E	8c#L	4g#	4cc#
.	.	.	8BJ	.	.
=7	=7	=7	=7	=7	=7
8F#L	.	8F#L	8AL	4f#	4dd
8G#J	.	8G#J	8BJ	.	.
4A	3 5	4A	8c#L	8eL	8cc#L
.	#4| 6	.	8d#XJ	8f#J	8bJ
4E	.	4E	4e	8g#L	8bL
.	.	.	.	8f#J	8aJ
4EE;	.	4E;	4e;	4g#;	4b;
=8	=8	=8	=8	=8	=8
8EL	6 #4| 2	8EL	8A#XL	8c#L	4f#
8D	6	8Dn	8BJ	8dnJ	.
8C#	7 5	8C#	4B	4e	4g#
8BBJ	.	8BBJ	.	.	.
8C#L	6	8C#L	4An	8e	4a
8F#	6	8F#	.	16dLL	.
.	.	.	.	16c#JJ	.
8E	5 4 2	8E	4A	4f#	4b
8DJ	.	8DJ	.	.	.
=9	=9	=9	=9	=9	=9
4E	6 4	4E	8AL	4e	8cc#L
.	.	.	8BJ	.	8ddJ
4EE	5 3	4E	8G#L	4e	4b
.	.	.	8dJ	.	.
4AA	.	4AA	8c#L	8eL	8aL
.	.	.	8BJ	8dJ	8g#J
4AA;	.	4AA;	4c#;	4e;	4a;
=||	=||	=||	=||	=||	=||
*-	*-	*-	*-	*-	*-
!!!system-decoration: s1,s2,s3,s4,s5
